!!!OTL: Flevit lepus, Nr. 176, S. 282
!!!id: N1188
**kern
*clefG2
*k[b-]
*F:
*M2/4
{8c
8f
8f
8f
=2
8e
8g
4g
=3
8a
8a
8b-
8g
=4
8g
8f
4f}
=5yy
{8cc
8a
8a
8f
=6
8f
8d
4d
=7
8b-
16a
16a
8g
8f
=8
8e
8d
4c}
=9yy
{8c
8f
8f
8f
=10
8e
8g
4g
=11
8a
16a
16a
8b-
8g
=12
8g
8f
4f}
==
*-
!!!minrhy: 16
!!!meters: 2/4 ]  ZZ[3
!!!cut: Flevit lepus, Nr. 176, S. 282
!!!rhy1: X_X_X_X_  X_X_X__  X_X_X_X_  X_X_X__
!!!rhy2: X_X_X_X_  X_X_X__  X_XXX_X_  X_X_X__
!!!key: N1188  16  F 2/4 ]  ZZ[3
!!!mod: HEPTATONIK  IONISCH]  AMBITUS[8
!!!kad: 1-51
!!!akz: -5-732_514-7_-5-732_
!!!fot: 'a__b__av_
!!!for: 'a__b__b__
!!!fok: 'Ma_\__Ma_
!! PHRAS[VOLLTAKTIG]
!!!reg: Luxemburg
!!!trd: NEYENS, J.-P.: Jugendgr&uuml;&szlig;e, Ettelbr&uuml;ck 1912
!!!RNB: symbol: &szlig; = sz ligature (UTF-8: ß)
!!!RNB: symbol: &uuml;  = u umlaut (UTF-8: ü)
